X: 1167
T: the Crow's Nest
R: slipjig
%S: s:2 b:9(4+5)
B: O'Neill's 1850 Music of Ireland #1167
O: McFadden
Z: Stephen Foy (shf@access.digex.net)
%: abc 1.6
M: 9/8
K: D
"^A"|: d2A A2G FED |1,3 A2d dzg fed :|2,4 A2B c2B cde "^B":: d2g f2d ezc |
| A2d d2c dcA |[1 B2g f2d ezc | A2B c2B cde :|[2 efg f2d e2c | A2B c2B cde |]
